build/images/g18.svg

<svg width="138" height="138" viewBox="0 0 138 138" fill="none" xmlns="http://www.w3.org/2000/svg">
<circle cx="69" cy="69" r="69" fill="#76BD5E"/>
<path d="M29 65.5C29 65.575 29 65.6313 29.019 65.7063L34.7299 108.1C35.0335 110.331 36.9688 112 39.2455 112H103.375C105.879 112 107.929 109.975 107.929 107.5V101.594L113.981 56.6875V56.6687C113.981 56.6312 113.981 56.6125 113.981 56.575C113.981 56.5562 113.981 56.5375 113.981 56.5V56.4812V50.4812C113.981 49.6562 113.298 48.9812 112.463 48.9812H82.125C81.2902 48.9812 80.6071 49.6562 80.6071 50.4812V56.4812V56.5C80.6071 56.5187 80.6071 56.5375 80.6071 56.575C80.6071 56.6125 80.6071 56.6312 80.6071 56.6687V56.6875L83.3962 77.425C80.3415 77.2 79.3929 76.375 79.1272 76C78.9185 75.7188 78.8616 75.3625 78.9565 75.0437C79.1652 74.5938 79.1272 74.0687 78.8426 73.6562C78.558 73.225 78.0647 72.9813 77.5525 73C74.5357 73 72.202 73.5813 70.2857 74.4438L71.4621 65.7063C71.4621 65.6313 71.481 65.575 71.481 65.5C71.481 58.1688 67.3259 51.4562 60.7042 48.1375C60.8371 47.8562 60.875 47.5562 60.8181 47.2562L59.3002 38.2562C59.1864 37.525 58.5413 37 57.8013 37H56.2835V31H66.9085C67.7433 31 68.4263 30.325 68.4263 29.5V23.5C68.4263 22.675 67.7433 22 66.9085 22C66.8705 22 66.8326 22 66.8136 22L44.0458 23.5C43.4386 23.5375 42.9074 23.95 42.6987 24.5312L41.1808 29.0312C40.9152 29.8187 41.3516 30.6625 42.1484 30.925C42.3002 30.9812 42.471 31 42.6228 31H44.1406V37H42.6228C41.8828 37 41.2567 37.525 41.1239 38.2562L39.606 47.2562C39.5491 47.5562 39.606 47.8562 39.7199 48.1375C33.1551 51.4562 29 58.1688 29 65.5ZM91.2321 109H54.6138C53.8929 109 53.2857 108.419 53.2857 107.688V92.3125C53.2857 91.6 53.8739 91 54.6138 91H91.4219C92.1429 91 92.75 91.5813 92.75 92.3125V107.688C92.75 108.4 92.1618 109 91.4219 109H91.2321ZM57.8393 85H88.1964V88H57.8393V85ZM104.893 107.5C104.893 108.325 104.21 109 103.375 109H95.577C95.7098 108.569 95.7857 108.137 95.7857 107.688V103H104.893V107.5ZM105.083 100H95.7857V92.3125C95.7857 89.9313 93.8315 88 91.4219 88H91.2321V83.5C91.2321 83.4625 91.2321 83.425 91.2321 83.3687V83.35C91.1183 82.375 90.8147 81.4188 90.3404 80.5375C89.5625 79.0563 88.1585 77.9875 86.5078 77.65L83.8516 58.0188H110.737L105.083 100ZM83.6429 52H110.964V55H83.6429V52ZM76.6038 77.65C77.894 79.5437 80.7589 80.5 85.1607 80.5C86.2991 80.5 87.077 80.95 87.6272 81.9062C87.6462 81.9437 87.6652 81.9813 87.6842 82H64.8594C65.5045 81.5125 66.1306 80.9875 66.7377 80.4812C69.2042 78.4187 71.5569 76.45 75.9587 76.075C76.0536 76.6375 76.2812 77.1812 76.6038 77.65ZM45.298 26.425L65.4286 25.1125V28H44.7667L45.298 26.425ZM47.2143 31H53.2857V37H47.2143V31ZM42.9263 46L43.9319 40H56.5301L57.5357 46H42.9263ZM48.7321 49H51.7679C60.9509 49.0187 68.4074 56.3312 68.4643 65.4062L66.9844 76.4312C66.2065 77.0125 65.4855 77.6125 64.7835 78.1938C62.3359 80.2375 60.2299 82 56.3214 82C55.4866 82 54.8036 82.675 54.8036 83.5V88H54.6138C52.2042 88 50.25 89.9313 50.25 92.3125V107.688C50.25 108.137 50.3259 108.569 50.4587 109H39.2455C38.4866 109 37.8415 108.438 37.7467 107.706L32.0357 65.4062C32.0926 56.3312 39.5491 49.0187 48.7321 49Z" fill="white"/>
<path d="M73.0177 94C69.6595 94 66.9463 96.6812 66.9463 100C66.9463 103.319 69.6595 106 73.0177 106C76.376 106 79.0891 103.319 79.0891 100C79.0891 96.6812 76.376 94 73.0177 94ZM73.0177 103C71.3481 103 69.982 101.65 69.982 100C69.982 98.35 71.3481 97 73.0177 97C74.6874 97 76.0534 98.35 76.0534 100C76.0534 101.65 74.6874 103 73.0177 103Z" fill="white"/>
<path d="M97.3036 73C101.63 73 104.893 71.0687 104.893 68.5C104.893 65.9312 101.63 64 97.3036 64C92.9777 64 89.7144 65.9312 89.7144 68.5C89.7144 71.0687 92.9777 73 97.3036 73ZM97.3036 67C100.244 67 101.857 68.125 101.857 68.5C101.857 68.875 100.244 70 97.3036 70C94.3628 70 92.7501 68.875 92.7501 68.5C92.7501 68.125 94.3628 67 97.3036 67Z" fill="white"/>
<path d="M41.1429 71.5H59.3571C60.192 71.5 60.875 70.825 60.875 70V61C60.875 60.175 60.192 59.5 59.3571 59.5H41.1429C40.308 59.5 39.625 60.175 39.625 61V70C39.625 70.825 40.308 71.5 41.1429 71.5ZM42.6607 62.5H57.8393V68.5H42.6607V62.5Z" fill="white"/>
</svg>

<svg width="138" height="138" fill="none" xmlns="http://www.w3.org/2000/svg"><circle cx="69" cy="69" r="69" fill="#76BD5E"/><path d="M29 65.5c0 .075 0 .131.019.206l5.71 42.394c.304 2.231 2.24 3.9 4.517 3.9h64.129c2.504 0 4.554-2.025 4.554-4.5v-5.906l6.052-44.906v-6.207c0-.825-.683-1.5-1.518-1.5H82.125c-.835 0-1.518.675-1.518 1.5v6.207l2.79 20.737c-3.056-.225-4.004-1.05-4.27-1.425a1.087 1.087 0 01-.17-.956c.208-.45.17-.975-.114-1.388a1.48 1.48 0 00-1.29-.656c-3.017 0-5.351.581-7.267 1.444l1.176-8.738c0-.075.019-.131.019-.206 0-7.331-4.155-14.044-10.777-17.362.133-.282.171-.582.114-.882l-1.518-9c-.114-.731-.759-1.256-1.499-1.256h-1.518v-6H66.91c.834 0 1.517-.675 1.517-1.5v-6c0-.825-.683-1.5-1.517-1.5h-.095l-22.768 1.5a1.55 1.55 0 00-1.347 1.031l-1.518 4.5c-.266.788.17 1.632.967 1.894.152.056.323.075.475.075h1.518v6h-1.518a1.52 1.52 0 00-1.5 1.256l-1.517 9c-.057.3 0 .6.114.882C33.155 51.456 29 58.168 29 65.5zM91.232 109H54.614a1.324 1.324 0 01-1.328-1.312V92.312c0-.712.588-1.312 1.328-1.312h36.808c.72 0 1.328.581 1.328 1.313v15.375c0 .712-.588 1.312-1.328 1.312h-.19zM57.84 85h30.357v3H57.84v-3zm47.054 22.5c0 .825-.683 1.5-1.518 1.5h-7.798a4.41 4.41 0 00.209-1.312V103h9.107v4.5zm.19-7.5h-9.297v-7.688c0-2.38-1.954-4.312-4.364-4.312h-.19v-4.65a7.87 7.87 0 00-.892-2.813 5.605 5.605 0 00-3.832-2.887l-2.656-19.631h26.885L105.083 100zm-21.44-48h27.321v3H83.643v-3zm-7.04 25.65c1.291 1.894 4.156 2.85 8.558 2.85 1.138 0 1.916.45 2.466 1.406.02.038.038.075.057.094H64.86c.645-.487 1.272-1.013 1.879-1.519 2.466-2.062 4.819-4.031 9.22-4.406.096.563.323 1.106.646 1.575zM45.299 26.425l20.13-1.313V28H44.768l.531-1.575zM47.214 31h6.072v6h-6.072v-6zm-4.288 15l1.006-6H56.53l1.006 6h-14.61zm5.806 3h3.036c9.183.019 16.64 7.331 16.696 16.406l-1.48 11.025c-.777.582-1.498 1.181-2.2 1.763C62.336 80.237 60.23 82 56.32 82c-.834 0-1.517.675-1.517 1.5V88h-.19c-2.41 0-4.364 1.931-4.364 4.313v15.375c0 .449.076.881.209 1.312H39.245c-.758 0-1.403-.562-1.498-1.294l-5.711-42.3C32.093 56.331 39.549 49.02 48.732 49z" fill="#fff"/><path d="M73.018 94c-3.359 0-6.072 2.681-6.072 6s2.713 6 6.072 6c3.358 0 6.071-2.681 6.071-6s-2.713-6-6.071-6zm0 9c-1.67 0-3.036-1.35-3.036-3s1.366-3 3.036-3 3.035 1.35 3.035 3-1.366 3-3.035 3zm24.286-30c4.326 0 7.589-1.931 7.589-4.5s-3.263-4.5-7.59-4.5c-4.325 0-7.589 1.931-7.589 4.5s3.264 4.5 7.59 4.5zm0-6c2.94 0 4.553 1.125 4.553 1.5s-1.613 1.5-4.553 1.5c-2.941 0-4.554-1.125-4.554-1.5s1.613-1.5 4.554-1.5zm-56.161 4.5h18.214c.835 0 1.518-.675 1.518-1.5v-9c0-.825-.683-1.5-1.518-1.5H41.143c-.835 0-1.518.675-1.518 1.5v9c0 .825.683 1.5 1.518 1.5zm1.518-9h15.178v6H42.661v-6z" fill="#fff"/></svg>
